Adwaita++/places/symbolic/network-server-symbolic.svg

<svg height="16" width="16" xmlns="http://www.w3.org/2000/svg">
  <g fill="#474747">
    <path d="m1.5 14h13c.277 0 .5.223.5.5v1c0 .277-.223.5-.5.5h-13a.499.499 0 0 1 -.5-.5v-1c0-.277.223-.5.5-.5z"/>
    <path d="m5 0c-1.09 0-2 .91-2 2v8c0 1.09.91 2 2 2h6c1.09 0 2-.91 2-2v-8c0-1.09-.91-2-2-2zm0 2h6v8h-6z"/>
    <path d="m6 3h4v1h-4zm3 2h1v1h-1zm-2 6h2v4h-2z"/>
  </g>
</svg>

<svg xmlns="http://www.w3.org/2000/svg" width="16" height="16">
    <g color="#000" fill="#474747">
        <path d="M1.5 14h13c.277 0 .5.223.5.5v1c0 .277-.223.5-.5.5h-13a.499.499 0 0 1-.5-.5v-1c0-.277.223-.5.5-.5z" style="marker:none" overflow="visible"/>
        <path d="M5 0C3.91 0 3 .91 3 2v8c0 1.09.91 2 2 2h6c1.09 0 2-.91 2-2V2c0-1.09-.91-2-2-2zm0 2h6v8H5z" style="line-height:normal;font-variant-ligatures:normal;font-variant-position:normal;font-variant-caps:normal;font-variant-numeric:normal;font-variant-alternates:normal;font-feature-settings:normal;text-indent:0;text-align:start;text-decoration-line:none;text-decoration-style:solid;text-decoration-color:#000;text-transform:none;text-orientation:mixed;shape-padding:0;isolation:auto;mix-blend-mode:normal;marker:none" font-weight="400" font-family="sans-serif" white-space="normal" overflow="visible"/>
        <path d="M6 3h4v1H6zM9 5h1v1H9zM7 11h2v4H7z" style="marker:none" overflow="visible"/>
    </g>
</svg>
